dist/images/icon/phone-ico.svg

<svg width="40" height="40" viewBox="0 0 40 40" fill="none" xmlns="http://www.w3.org/2000/svg">
<path fill-rule="evenodd" clip-rule="evenodd" d="M11.2 6.42486C11.1977 5.09937 12.2705 4.0231 13.596 4.02093L26.3737 4C27.6992 3.99783 28.7755 5.07059 28.7776 6.39607L28.8222 33.5855C28.8244 34.9111 27.7516 35.9873 26.4261 35.9895L13.6484 36.0104C12.3229 36.0126 11.2466 34.9399 11.2444 33.6144L11.2 6.42486ZM12.7992 7.22217C12.7978 6.33852 13.5129 5.621 14.3966 5.61955L25.5784 5.60124C26.462 5.59979 27.1796 6.31496 27.181 7.19861L27.2164 28.7905C27.2178 29.6741 26.5027 30.3916 25.619 30.3931L14.4372 30.4114C13.5536 30.4128 12.836 29.6977 12.8346 28.814L12.7992 7.22217ZM20.0347 34.4004C20.9172 34.399 21.6315 33.6817 21.63 32.7984C21.6286 31.915 20.912 31.2 20.0294 31.2015C19.1469 31.2029 18.4326 31.9202 18.434 32.8036C18.4355 33.6869 19.1521 34.4019 20.0347 34.4004Z" fill="black"/>
</svg>

<svg width="40" height="40" fill="none" xmlns="http://www.w3.org/2000/svg"><path fill-rule="evenodd" clip-rule="evenodd" d="M11.2 6.425a2.4 2.4 0 012.396-2.404L26.374 4a2.4 2.4 0 012.404 2.396l.044 27.19a2.4 2.4 0 01-2.396 2.404l-12.778.02a2.4 2.4 0 01-2.404-2.396L11.2 6.424zm1.6.797a1.6 1.6 0 011.597-1.602l11.181-.02a1.6 1.6 0 011.603 1.6l.035 21.591a1.6 1.6 0 01-1.597 1.603l-11.182.018a1.6 1.6 0 01-1.602-1.597l-.036-21.592zM20.034 34.4a1.599 1.599 0 10-.007-3.197 1.599 1.599 0 00.007 3.197z" fill="#000"/></svg>
